!!!COM: Schoenberg [Schönberg], Arnold (Franz Walter)
!!!OTL: Zwei Balladen (Two Ballads) for Voice and Piano, op. 12
!!!OMV: II: Der verlorene Haufen (Forlorn Hope)
!!!example: 195
!!!work: Sch-10
**kern	**kern	**dynam	**kern	**dynam
*part2	*part2	*part2	*part1	*part1
*staff3	*staff2	*	*staff1	*
*I"Piano	*	*	*I"Baritone Solo	*
*I'Pno.	*	*	*I'Bar. Solo	*
*clefF4	*clefG2	*	*clefF4	*
*k[b-]	*k[b-]	*	*k[b-]	*
*F:	*F:	*	*F:	*
*M6/4	*M6/4	*	*M6/4	*
*MM121	*MM121	*	*MM121	*
=36	=	=	=	=
(8CC^L 8C	1.r	f	1.r	.
8DD-X 8D-X	.	.	.	.
8FF) 8F	.	.	.	.
(8EE 8E	.	.	.	.
8GGn 8Gn	.	.	.	.
8BB-XJ) 8B-X	.	.	.	.
(8AA^L 8A	.	.	.	.
8BB- 8B-	.	.	.	.
8D-X) 8d-X	.	.	.	.
(8C^ 8c	.	.	.	.
8E 8e	.	.	.	.
8GJ) 8g	.	.	.	.
=37	=37	=37	=37	=37
4An	(8f^L 8ff	<	8r	.
.	8dd-X	.	8A	p
8r	8cc)	.	4G#X	.
8A-XL	(8gn^ 8ggn	.	.	.
12c	8dd-	.	4Fn	.
12A-	.	.	.	.
.	8ccJ)	.	.	.
12GJ	.	.	.	.
4G-X	(8a-X^L 8aa-X	.	4.C#X	<
.	8ff-X	.	.	.
8r	8ee-X)	.	.	.
8G-L	(8b-^ 8bb-	.	8D	.
12B-	8ff-	.	4F	[[
12G-	.	.	.	.
.	8ee-J)	.	.	.
12FnJ	.	.	.	.
=38	=38	=38	=38	=38
4En	(8cc^L 8aa-X 8ccc	.	4.cn	[
.	8ddd-X	.	.	.
4r	8ddn)	.	.	.
.	(8dd^ 8bb- 8dddn	.	8A-X	.
[4D-X^ [4d-X	8eee-X	.	4G	[
.	8eenJ)	.	.	.
4D-] 4d-]	(8ff^L 8bb- 8ddd-X 8fff	.	4r	.
.	8ggg-X	.	.	.
4BB- 4B-	8ee)	.	4r	.
.	(8bb-^ 8ddd- 8ggg-	.	.	.
4GG-X 4G-X	8ee	.	(8AnL	f
.	8b-XJ)	[	8B-XJ)	.
=39	=39	=39	=39	=39
!!linebreak:original
4FFn 4Fn	(8dn^L 8b-X 8cc#X	f	2d	.
.	8dd	.	.	.
2AA-X 2A-X	8c#X)	.	.	.
.	(8a-X^ 8ccn	.	.	.
.	8Bn	.	(8A#XL	.
.	8gnJ) 8bn	.	8BnJ)	.
2FF-X 2F-X	(8B-X^L 8f#X 8an	.	4.d	.
.	8b-X	.	.	.
.	8An)	.	.	.
.	(8f-X^ 8a-X	.	8A#X	.
4EE-X 4E-X	8Gn	.	4Bn	.
.	8e-XJ) 8g	.	.	.
=40	=40	=40	=40	=40
(8CC#X^L	8dnL 8f#X	f	2d	.
8DDn	8F#XJ	.	.	.
8FF#X)	4r	.	.	.
(8EE#X 8E#X	.	.	.	.
8GG#X 8G#X	4r	.	4E-X	.
8BBnJ) 8Bn	.	.	.	.
(8AA#X^L 8A#X	2.r	.	2.r	.
8BB 8B	.	.	.	.
8D#X) 8d#X	.	.	.	.
(8Dn^ 8dn	.	.	.	.
8Fn 8fn	.	.	.	.
8A-XJ) 8a-X	.	.	.	.
=41	=41	=41	=41	=41
!!linebreak:original
4cn	(8aa-X^L 8aaa-X	p	8r	.
.	8fff-X	.	8C	p
8r	8eee-X)	.	4D-X	.
8B-XL	(8ggn^ 8gggn	.	.	.
12dn	8dddn	.	4F	.
12B-X	.	.	.	.
.	8ccc#XJ)	.	.	.
12AnJ	.	.	.	.
4A-X	(8gg-X^L 8ggg-X	.	4.A-X	.
.	8eeen	.	.	.
8r	8dddn)	.	.	.
8GnL	(8ggn^ 8gggn	.	8An	.
12B-X	8bb-X	.	4c	.
12G-X	.	.	.	.
.	8aanJ)	.	.	.
12FnJ	.	.	.	.
=42	=42	=42	=42	=42
4E-X	(8ff#X^L 8fff#X	f	4.Bn	.
.	8aa	.	.	.
4r	8gg#X)	.	.	.
.	(8een^ 8eeen	.	8Gn	.
([4C^ [4c	8aa	.	4F#X	.
.	8gg#J)	.	.	.
8CL] 8c]	4dd 4ddd	.	4r	.
8An	.	.	.	.
8G#X)	4r	.	4r	.
(8AA^ 8A	.	.	.	.
8Fn	8ffnL 8aan 8fffn	<	8fnL	f
8E-XJ)	8ee-XJ 8eee-X	.	8e-XJ	.
=43	=43	=43	=43	=43
!!linebreak:original
8GGnL 8E-X	(8ffnL 8ccc#X	.	4.c#X	.
8Bn	8aan	.	.	.
8AA 8F	8ggn)	.	.	.
8c#X	(8ee-X 8bbn	.	8Bn	.
8BBn 8Gn	8aa	.	4A	.
8enJ	8cc#XJ) 8ffn	.	.	.
8C#XL 8A	(8ee-XL	.	4.Gn	.
8fn	8bn 8gg	.	.	.
8E-X 8Bn	8ff	.	.	.
8g-X	8anJ) 8cc#X	.	8Fn	.
8Fn 8c#X	8r	[	4E-X	.
8anJ	8aan 8ccc#X 8fffn 8aaan	ff	.	.
=44	=44	=44	=44	=44
8r	4gg#X 4cccn 4eee 4ggg#X	>	2en	.
8GGG#X 8GG#X	.	.	.	.
4AAA 4AA	4.ggn 4.ccc 4.eee 4.gggn	.	.	.
4.BBB#X 4.BB#X	.	.	4A	.
.	8ff#X 8ddd#X 8fff#X	.	.	.
.	4ffn 4ddd# 4fffn	.	2.r	.
8CC#X 8C#X	.	<	.	.
4DD 4D	4.ee 4.ff#X 4.cccn 4.eee	.	.	.
[4FF#X [4F#X	.	[[	.	.
.	8ee-X 8ccc 8eee-X	.	.	.
==	==	==	==	==
*-	*-	*-	*-	*-
!!!CDT: 1874/09/13-1951/07/13
!!!CBL: Vienna, Austria
!!!CDL: Los Angeles, United States
!!!CNT: Austrian
!!!AGN: Vocal; Solo
!!!MCN:
!!!MDT: 1920/10/23
!!!MGN:
!!!MLC: Vienna, Austria
!!!MPD: 1920
!!!MPN: Bachrich, Ernst; Bauer-Pilecka, Olga
!!!ODT: 1907
!!!PDT: 1920
!!!excerpt-start-measure: 36
!!!excerpt-end-measure: 44
!!!excerpt-start-time: 1:37
!!!excerpt-end-time: 2:03
!!!EEV: 2020/01/17
!!!system-decoration: s1{(s2,s3)}
!!!ONB: Converted from MusicXML on 2020/01/17
